X: 37628
T: Snow Crystal, The
R: slip jig
M: 9/8
K: Amixolydian
|:"A5"A3 AGE E2B|"D/A"d2"A5"c zAE G2E|A3 AGE (3cde g|1 "Em"e3edc "Dadd2"dec:|2 "Em"e3edc "Dadd2"deg||
|:"A5"a3 age g2a|"D/A"ed"A5"c zBc A (3Bcd|"Em"e3 edc d2e|"Dadd2"BcA A2E G2E:|

